; generated by PrusaSlicer 2.5.2+win64 on 2023-06-02 at 12:00:20 UTC

; 

; external perimeters extrusion width = 0.45mm
; perimeters extrusion width = 0.45mm
; infill extrusion width = 0.45mm
; solid infill extrusion width = 0.45mm
; top infill extrusion width = 0.45mm
; first layer extrusion width = 0.45mm

M107
;TYPE:Custom
G90 ; use absolute coordinates
M83 ; extruder relative mode
M140 S60 ; set final bed temp
M104 S150 ; set temporary nozzle temp to prevent oozing during homing
G4 S10 ; allow partial nozzle warmup
G28 ; home all axis
G1 Z50 F240
G1 X2 Y10 F3000
M104 S210 ; set final nozzle temp
M190 S60 ; wait for bed temp to stabilize
M109 S210 ; wait for nozzle temp to stabilize
G1 Z0.28 F240
G92 E0
;G1 Y140 E10 F1500 ; prime the nozzle
G1 X2.3 F5000
G92 E0
;G1 Y10 E10 F1200 ; prime the nozzle
G92 E0
G21 ; set units to millimeters
G90 ; use absolute coordinates
M83 ; use relative distances for extrusion
; Filament gcode
M107
;LAYER_CHANGE
;Z:0.25
;HEIGHT:0.25
;BEFORE_LAYER_CHANGE
G92 E0
;0.25


G1 E-5 F3600
G1 Z.25 F9000
;AFTER_LAYER_CHANGE
;0.25
G1 X106.121 Y106.121
G1 E5 F2400
;TYPE:Perimeter
;WIDTH:0.449999
G1 F1200
G1 X124.879 Y106.121 E.77272
G1 X124.879 Y124.879 E.77272
G1 X106.121 Y124.879 E.77272
G1 X106.121 Y106.181 E.77025
G1 X105.725 Y105.725 F9000
;TYPE:External perimeter
G1 F1200
G1 X125.275 Y105.725 E.80538
G1 X125.275 Y125.275 E.80538
G1 X105.725 Y125.275 E.80538
G1 X105.725 Y105.785 E.8029
G1 X106.111 Y105.829 F9000
G1 E-3.5 F3600
;WIPE_START
G1 F7200
G1 X108.725 Y105.776 E-1.425
;WIPE_END
G1 E-.075 F3600
G1 X123.956 Y106.24 F9000
G1 E5 F2400
;TYPE:Solid infill
;WIDTH:0.451325
G1 F1200
G1 X124.581 Y106.866 E.03657
G1 X124.581 Y107.428 E.02325
G1 X123.572 Y106.419 E.05902
G1 X123.009 Y106.419 E.02325
G1 X124.581 Y107.991 E.0919
G1 X124.581 Y108.553 E.02325
G1 X122.447 Y106.419 E.12477
G1 X121.884 Y106.419 E.02325
G1 X124.581 Y109.116 E.15765
G1 X124.581 Y109.678 E.02325
G1 X121.322 Y106.419 E.19052
G1 X120.76 Y106.419 E.02325
G1 X124.581 Y110.24 E.2234
G1 X124.581 Y110.803 E.02325
G1 X120.197 Y106.419 E.25627
G1 X119.635 Y106.419 E.02325
G1 X124.581 Y111.365 E.28914
G1 X124.581 Y111.927 E.02325
G1 X119.073 Y106.419 E.32202
G1 X118.51 Y106.419 E.02325
G1 X124.581 Y112.49 E.35489
G1 X124.581 Y113.052 E.02325
G1 X117.948 Y106.419 E.38777
G1 X117.385 Y106.419 E.02325
G1 X124.581 Y113.615 E.42064
G1 X124.581 Y114.177 E.02325
G1 X116.823 Y106.419 E.45352
G1 X116.261 Y106.419 E.02325
G1 X124.581 Y114.739 E.48639
G1 X124.581 Y115.302 E.02325
G1 X115.698 Y106.419 E.51927
G1 X115.136 Y106.419 E.02325
G1 X124.581 Y115.864 E.55214
G1 X124.581 Y116.427 E.02325
G1 X114.573 Y106.419 E.58502
G1 X114.011 Y106.419 E.02325
G1 X124.581 Y116.989 E.61789
G1 X124.581 Y117.551 E.02325
G1 X113.449 Y106.419 E.65077
G1 X112.886 Y106.419 E.02325
G1 X124.581 Y118.114 E.68364
G1 X124.581 Y118.676 E.02325
G1 X112.324 Y106.419 E.71651
G1 X111.761 Y106.419 E.02325
G1 X124.581 Y119.239 E.74939
G1 X124.581 Y119.801 E.02325
G1 X111.199 Y106.419 E.78226
G1 X110.637 Y106.419 E.02325
G1 X124.581 Y120.363 E.81514
G1 X124.581 Y120.926 E.02325
G1 X110.074 Y106.419 E.84801
G1 X109.512 Y106.419 E.02325
G1 X124.581 Y121.488 E.88089
G1 X124.581 Y122.051 E.02325
G1 X108.949 Y106.419 E.91376
G1 X108.387 Y106.419 E.02325
G1 X124.581 Y122.613 E.94664
G1 X124.581 Y123.175 E.02325
G1 X107.825 Y106.419 E.97951
G1 X107.262 Y106.419 E.02325
G1 X124.581 Y123.738 E1.01239
G1 X124.581 Y124.3 E.02325
G1 X106.7 Y106.419 E1.04526
G1 X106.419 Y106.419 E.01162
G1 X106.419 Y106.7 E.01162
G1 X124.3 Y124.581 E1.04526
G1 X123.738 Y124.581 E.02325
G1 X106.419 Y107.262 E1.01238
G1 X106.419 Y107.825 E.02325
G1 X123.175 Y124.581 E.97951
G1 X122.613 Y124.581 E.02325
G1 X106.419 Y108.387 E.94663
G1 X106.419 Y108.949 E.02325
G1 X122.051 Y124.581 E.91376
G1 X121.488 Y124.581 E.02325
G1 X106.419 Y109.512 E.88088
G1 X106.419 Y110.074 E.02325
G1 X120.926 Y124.581 E.84801
G1 X120.363 Y124.581 E.02325
G1 X106.419 Y110.637 E.81513
G1 X106.419 Y111.199 E.02325
G1 X119.801 Y124.581 E.78226
G1 X119.239 Y124.581 E.02325
G1 X106.419 Y111.761 E.74939
G1 X106.419 Y112.324 E.02325
G1 X118.676 Y124.581 E.71651
G1 X118.114 Y124.581 E.02325
G1 X106.419 Y112.886 E.68364
G1 X106.419 Y113.449 E.02325
G1 X117.551 Y124.581 E.65076
G1 X116.989 Y124.581 E.02325
G1 X106.419 Y114.011 E.61789
G1 X106.419 Y114.573 E.02325
G1 X116.427 Y124.581 E.58501
G1 X115.864 Y124.581 E.02325
G1 X106.419 Y115.136 E.55214
G1 X106.419 Y115.698 E.02325
G1 X115.302 Y124.581 E.51926
G1 X114.739 Y124.581 E.02325
G1 X106.419 Y116.261 E.48639
G1 X106.419 Y116.823 E.02325
G1 X114.177 Y124.581 E.45351
G1 X113.615 Y124.581 E.02325
G1 X106.419 Y117.385 E.42064
G1 X106.419 Y117.948 E.02325
G1 X113.052 Y124.581 E.38776
G1 X112.49 Y124.581 E.02325
G1 X106.419 Y118.51 E.35489
G1 X106.419 Y119.073 E.02325
G1 X111.927 Y124.581 E.32202
G1 X111.365 Y124.581 E.02325
G1 X106.419 Y119.635 E.28914
G1 X106.419 Y120.197 E.02325
G1 X110.803 Y124.581 E.25627
G1 X110.24 Y124.581 E.02325
G1 X106.419 Y120.76 E.22339
G1 X106.419 Y121.322 E.02325
G1 X109.678 Y124.581 E.19052
G1 X109.115 Y124.581 E.02325
G1 X106.419 Y121.885 E.15764
G1 X106.419 Y122.447 E.02325
G1 X108.553 Y124.581 E.12477
G1 X107.991 Y124.581 E.02325
G1 X106.419 Y123.009 E.09189
G1 X106.419 Y123.572 E.02325
G1 X107.428 Y124.581 E.05902
G1 X106.866 Y124.581 E.02325
G1 X106.24 Y123.956 E.03657
M106 S255
;LAYER_CHANGE
;Z:0.5
;HEIGHT:0.25
;BEFORE_LAYER_CHANGE
G92 E0
;0.5


G1 E-3.5 F3600
;WIPE_START
G1 F7200
G1 X106.866 Y124.581 E-.42026
G1 X107.428 Y124.581 E-.26714
G1 X106.419 Y123.572 E-.67824
G1 X106.419 Y123.447 E-.05937
;WIPE_END
G1 E-.075 F3600
G1 Z.5 F9000
;AFTER_LAYER_CHANGE
;0.5
M104 S205 ; set temperature
G1 X106.121 Y124.879
G1 E5 F2400
;TYPE:Perimeter
;WIDTH:0.449999
G1 X106.121 Y106.121 E.77272
G1 X124.879 Y106.121 E.77272
G1 X124.879 Y124.879 E.77272
G1 X106.181 Y124.879 E.77025
G1 X105.725 Y125.275 F9000
;TYPE:External perimeter
G1 F1500
G1 X105.725 Y105.725 E.80538
G1 X125.275 Y105.725 E.80538
G1 X125.275 Y125.275 E.80538
G1 X105.785 Y125.275 E.8029
G1 X105.829 Y124.889 F9000
G1 E-3.5 F3600
;WIPE_START
G1 F7200
G1 X105.776 Y122.275 E-1.425
;WIPE_END
G1 E-.075 F3600
G1 X123.956 Y124.76 F9000
G1 E5 F2400
;TYPE:Solid infill
;WIDTH:0.451325
G1 X124.581 Y124.134 E.03657
G1 X124.581 Y123.572 E.02325
G1 X123.572 Y124.581 E.05902
G1 X123.009 Y124.581 E.02325
G1 X124.581 Y123.009 E.0919
G1 X124.581 Y122.447 E.02325
G1 X122.447 Y124.581 E.12477
G1 X121.884 Y124.581 E.02325
G1 X124.581 Y121.884 E.15765
G1 X124.581 Y121.322 E.02325
G1 X121.322 Y124.581 E.19052
G1 X120.76 Y124.581 E.02325
G1 X124.581 Y120.76 E.2234
G1 X124.581 Y120.197 E.02325
G1 X120.197 Y124.581 E.25627
G1 X119.635 Y124.581 E.02325
G1 X124.581 Y119.635 E.28914
G1 X124.581 Y119.072 E.02325
G1 X119.072 Y124.581 E.32202
G1 X118.51 Y124.581 E.02325
G1 X124.581 Y118.51 E.35489
G1 X124.581 Y117.948 E.02325
G1 X117.948 Y124.581 E.38777
G1 X117.385 Y124.581 E.02325
G1 X124.581 Y117.385 E.42064
G1 X124.581 Y116.823 E.02325
G1 X116.823 Y124.581 E.45352
G1 X116.261 Y124.581 E.02325
G1 X124.581 Y116.261 E.48639
G1 X124.581 Y115.698 E.02325
G1 X115.698 Y124.581 E.51927
G1 X115.136 Y124.581 E.02325
G1 X124.581 Y115.136 E.55214
G1 X124.581 Y114.573 E.02325
G1 X114.573 Y124.581 E.58502
G1 X114.011 Y124.581 E.02325
G1 X124.581 Y114.011 E.61789
G1 X124.581 Y113.449 E.02325
G1 X113.449 Y124.581 E.65077
G1 X112.886 Y124.581 E.02325
G1 X124.581 Y112.886 E.68364
G1 X124.581 Y112.324 E.02325
G1 X112.324 Y124.581 E.71651
G1 X111.761 Y124.581 E.02325
G1 X124.581 Y111.761 E.74939
G1 X124.581 Y111.199 E.02325
G1 X111.199 Y124.581 E.78226
G1 X110.637 Y124.581 E.02325
G1 X124.581 Y110.637 E.81514
G1 X124.581 Y110.074 E.02325
G1 X110.074 Y124.581 E.84801
G1 X109.512 Y124.581 E.02325
G1 X124.581 Y109.512 E.88089
G1 X124.581 Y108.949 E.02325
G1 X108.949 Y124.581 E.91376
G1 X108.387 Y124.581 E.02325
G1 X124.581 Y108.387 E.94664
G1 X124.581 Y107.825 E.02325
G1 X107.825 Y124.581 E.97951
G1 X107.262 Y124.581 E.02325
G1 X124.581 Y107.262 E1.01239
G1 X124.581 Y106.7 E.02325
G1 X106.7 Y124.581 E1.04526
G1 X106.419 Y124.581 E.01162
G1 X106.419 Y124.3 E.01163
G1 X124.3 Y106.419 E1.04525
G1 X123.738 Y106.419 E.02325
G1 X106.419 Y123.738 E1.01238
G1 X106.419 Y123.175 E.02325
G1 X123.175 Y106.419 E.97951
G1 X122.613 Y106.419 E.02325
G1 X106.419 Y122.613 E.94663
G1 X106.419 Y122.051 E.02325
G1 X122.051 Y106.419 E.91376
G1 X121.488 Y106.419 E.02325
G1 X106.419 Y121.488 E.88088
G1 X106.419 Y120.926 E.02325
G1 X120.926 Y106.419 E.84801
G1 X120.363 Y106.419 E.02325
G1 X106.419 Y120.363 E.81513
G1 X106.419 Y119.801 E.02325
G1 X119.801 Y106.419 E.78226
G1 X119.239 Y106.419 E.02325
G1 X106.419 Y119.239 E.74938
G1 X106.419 Y118.676 E.02325
G1 X118.676 Y106.419 E.71651
G1 X118.114 Y106.419 E.02325
G1 X106.419 Y118.114 E.68363
G1 X106.419 Y117.551 E.02325
G1 X117.551 Y106.419 E.65076
G1 X116.989 Y106.419 E.02325
G1 X106.419 Y116.989 E.61788
G1 X106.419 Y116.427 E.02325
G1 X116.427 Y106.419 E.58501
G1 X115.864 Y106.419 E.02325
G1 X106.419 Y115.864 E.55214
G1 X106.419 Y115.302 E.02325
G1 X115.302 Y106.419 E.51926
G1 X114.739 Y106.419 E.02325
G1 X106.419 Y114.739 E.48639
G1 X106.419 Y114.177 E.02325
G1 X114.177 Y106.419 E.45351
G1 X113.615 Y106.419 E.02325
G1 X106.419 Y113.615 E.42064
G1 X106.419 Y113.052 E.02325
G1 X113.052 Y106.419 E.38776
G1 X112.49 Y106.419 E.02325
G1 X106.419 Y112.49 E.35489
G1 X106.419 Y111.927 E.02325
G1 X111.927 Y106.419 E.32201
G1 X111.365 Y106.419 E.02325
G1 X106.419 Y111.365 E.28914
G1 X106.419 Y110.803 E.02325
G1 X110.803 Y106.419 E.25626
G1 X110.24 Y106.419 E.02325
G1 X106.419 Y110.24 E.22339
G1 X106.419 Y109.678 E.02325
G1 X109.678 Y106.419 E.19051
G1 X109.115 Y106.419 E.02325
G1 X106.419 Y109.115 E.15764
G1 X106.419 Y108.553 E.02325
G1 X108.553 Y106.419 E.12477
G1 X107.991 Y106.419 E.02325
G1 X106.419 Y107.991 E.09189
G1 X106.419 Y107.428 E.02325
G1 X107.428 Y106.419 E.05902
G1 X106.866 Y106.419 E.02325
G1 X106.24 Y107.044 E.03657
;LAYER_CHANGE
;Z:0.75
;HEIGHT:0.25
;BEFORE_LAYER_CHANGE
G92 E0
;0.75


G1 E-3.5 F3600
;WIPE_START
G1 F7200
G1 X106.866 Y106.419 E-.42023
G1 X107.428 Y106.419 E-.26714
G1 X106.419 Y107.428 E-.67821
G1 X106.419 Y107.553 E-.05942
;WIPE_END
G1 E-.075 F3600
G1 Z.75 F9000
;AFTER_LAYER_CHANGE
;0.75
G1 X106.121 Y106.121
G1 E5 F2400
;TYPE:Perimeter
;WIDTH:0.449999
G1 X124.879 Y106.121 E.77272
G1 X124.879 Y124.879 E.77272
G1 X106.121 Y124.879 E.77272
G1 X106.121 Y106.181 E.77025
G1 X105.725 Y105.725 F9000
;TYPE:External perimeter
G1 F1500
G1 X125.275 Y105.725 E.80538
G1 X125.275 Y125.275 E.80538
G1 X105.725 Y125.275 E.80538
G1 X105.725 Y105.785 E.8029
G1 X106.111 Y105.829 F9000
G1 E-3.5 F3600
;WIPE_START
G1 F7200
G1 X108.725 Y105.776 E-1.425
;WIPE_END
G1 E-.075 F3600
G1 X123.956 Y106.24 F9000
G1 E5 F2400
;TYPE:Solid infill
;WIDTH:0.451325
G1 X124.581 Y106.866 E.03657
G1 X124.581 Y107.428 E.02325
G1 X123.572 Y106.419 E.05902
G1 X123.009 Y106.419 E.02325
G1 X124.581 Y107.991 E.0919
G1 X124.581 Y108.553 E.02325
G1 X122.447 Y106.419 E.12477
G1 X121.884 Y106.419 E.02325
G1 X124.581 Y109.116 E.15765
G1 X124.581 Y109.678 E.02325
G1 X121.322 Y106.419 E.19052
G1 X120.76 Y106.419 E.02325
G1 X124.581 Y110.24 E.2234
G1 X124.581 Y110.803 E.02325
G1 X120.197 Y106.419 E.25627
G1 X119.635 Y106.419 E.02325
G1 X124.581 Y111.365 E.28914
G1 X124.581 Y111.928 E.02325
G1 X119.072 Y106.419 E.32202
G1 X118.51 Y106.419 E.02325
G1 X124.581 Y112.49 E.35489
G1 X124.581 Y113.052 E.02325
G1 X117.948 Y106.419 E.38777
G1 X117.385 Y106.419 E.02325
G1 X124.581 Y113.615 E.42064
G1 X124.581 Y114.177 E.02325
G1 X116.823 Y106.419 E.45352
G1 X116.261 Y106.419 E.02325
G1 X124.581 Y114.739 E.48639
G1 X124.581 Y115.302 E.02325
G1 X115.698 Y106.419 E.51927
G1 X115.136 Y106.419 E.02325
G1 X124.581 Y115.864 E.55214
G1 X124.581 Y116.427 E.02325
G1 X114.573 Y106.419 E.58502
G1 X114.011 Y106.419 E.02325
G1 X124.581 Y116.989 E.61789
G1 X124.581 Y117.551 E.02325
G1 X113.449 Y106.419 E.65077
G1 X112.886 Y106.419 E.02325
G1 X124.581 Y118.114 E.68364
G1 X124.581 Y118.676 E.02325
G1 X112.324 Y106.419 E.71651
G1 X111.761 Y106.419 E.02325
G1 X124.581 Y119.239 E.74939
G1 X124.581 Y119.801 E.02325
G1 X111.199 Y106.419 E.78226
G1 X110.637 Y106.419 E.02325
G1 X124.581 Y120.363 E.81514
G1 X124.581 Y120.926 E.02325
G1 X110.074 Y106.419 E.84801
G1 X109.512 Y106.419 E.02325
G1 X124.581 Y121.488 E.88089
G1 X124.581 Y122.051 E.02325
G1 X108.949 Y106.419 E.91376
G1 X108.387 Y106.419 E.02325
G1 X124.581 Y122.613 E.94664
G1 X124.581 Y123.175 E.02325
G1 X107.825 Y106.419 E.97951
G1 X107.262 Y106.419 E.02325
G1 X124.581 Y123.738 E1.01239
G1 X124.581 Y124.3 E.02325
G1 X106.7 Y106.419 E1.04526
G1 X106.419 Y106.419 E.01162
G1 X106.419 Y106.7 E.01163
G1 X124.3 Y124.581 E1.04525
G1 X123.738 Y124.581 E.02325
G1 X106.419 Y107.262 E1.01238
G1 X106.419 Y107.825 E.02325
G1 X123.175 Y124.581 E.97951
G1 X122.613 Y124.581 E.02325
G1 X106.419 Y108.387 E.94663
G1 X106.419 Y108.949 E.02325
G1 X122.051 Y124.581 E.91376
G1 X121.488 Y124.581 E.02325
G1 X106.419 Y109.512 E.88088
G1 X106.419 Y110.074 E.02325
G1 X120.926 Y124.581 E.84801
G1 X120.363 Y124.581 E.02325
G1 X106.419 Y110.637 E.81513
G1 X106.419 Y111.199 E.02325
G1 X119.801 Y124.581 E.78226
G1 X119.239 Y124.581 E.02325
G1 X106.419 Y111.761 E.74938
G1 X106.419 Y112.324 E.02325
G1 X118.676 Y124.581 E.71651
G1 X118.114 Y124.581 E.02325
G1 X106.419 Y112.886 E.68363
G1 X106.419 Y113.449 E.02325
G1 X117.551 Y124.581 E.65076
G1 X116.989 Y124.581 E.02325
G1 X106.419 Y114.011 E.61788
G1 X106.419 Y114.573 E.02325
G1 X116.427 Y124.581 E.58501
G1 X115.864 Y124.581 E.02325
G1 X106.419 Y115.136 E.55214
G1 X106.419 Y115.698 E.02325
G1 X115.302 Y124.581 E.51926
G1 X114.739 Y124.581 E.02325
G1 X106.419 Y116.261 E.48639
G1 X106.419 Y116.823 E.02325
G1 X114.177 Y124.581 E.45351
G1 X113.615 Y124.581 E.02325
G1 X106.419 Y117.385 E.42064
G1 X106.419 Y117.948 E.02325
G1 X113.052 Y124.581 E.38776
G1 X112.49 Y124.581 E.02325
G1 X106.419 Y118.51 E.35489
G1 X106.419 Y119.073 E.02325
G1 X111.927 Y124.581 E.32201
G1 X111.365 Y124.581 E.02325
G1 X106.419 Y119.635 E.28914
G1 X106.419 Y120.197 E.02325
G1 X110.803 Y124.581 E.25626
G1 X110.24 Y124.581 E.02325
G1 X106.419 Y120.76 E.22339
G1 X106.419 Y121.322 E.02325
G1 X109.678 Y124.581 E.19051
G1 X109.115 Y124.581 E.02325
G1 X106.419 Y121.885 E.15764
G1 X106.419 Y122.447 E.02325
G1 X108.553 Y124.581 E.12477
G1 X107.991 Y124.581 E.02325
G1 X106.419 Y123.009 E.09189
G1 X106.419 Y123.572 E.02325
G1 X107.428 Y124.581 E.05902
G1 X106.866 Y124.581 E.02325
G1 X106.24 Y123.956 E.03657
;LAYER_CHANGE
;Z:1
;HEIGHT:0.25
;BEFORE_LAYER_CHANGE
G92 E0
;1


G1 E-3.5 F3600
;WIPE_START
G1 F7200
G1 X106.866 Y124.581 E-.42023
G1 X107.428 Y124.581 E-.26714
G1 X106.419 Y123.572 E-.67821
G1 X106.419 Y123.447 E-.05942
;WIPE_END
G1 E-.075 F3600
G1 Z1 F9000
;AFTER_LAYER_CHANGE
;1
G1 X106.121 Y124.879
G1 E5 F2400
;TYPE:Perimeter
;WIDTH:0.449999
G1 X106.121 Y106.121 E.77272
G1 X124.879 Y106.121 E.77272
G1 X124.879 Y124.879 E.77272
G1 X106.181 Y124.879 E.77025
G1 X105.725 Y125.275 F9000
;TYPE:External perimeter
G1 F1500
G1 X105.725 Y105.725 E.80538
G1 X125.275 Y105.725 E.80538
G1 X125.275 Y125.275 E.80538
G1 X105.785 Y125.275 E.8029
G1 X105.829 Y124.889 F9000
G1 E-3.5 F3600
;WIPE_START
G1 F7200
G1 X105.776 Y122.275 E-1.425
;WIPE_END
G1 E-.075 F3600
G1 X123.956 Y124.76 F9000
G1 E5 F2400
;TYPE:Top solid infill
;WIDTH:0.451325
G1 F1800
G1 X124.581 Y124.134 E.03657
G1 X124.581 Y123.572 E.02325
G1 X123.572 Y124.581 E.05902
G1 X123.009 Y124.581 E.02325
G1 X124.581 Y123.009 E.0919
G1 X124.581 Y122.447 E.02325
G1 X122.447 Y124.581 E.12477
G1 X121.884 Y124.581 E.02325
G1 X124.581 Y121.884 E.15765
G1 X124.581 Y121.322 E.02325
G1 X121.322 Y124.581 E.19052
G1 X120.76 Y124.581 E.02325
G1 X124.581 Y120.76 E.2234
G1 X124.581 Y120.197 E.02325
G1 X120.197 Y124.581 E.25627
G1 X119.635 Y124.581 E.02325
G1 X124.581 Y119.635 E.28914
G1 X124.581 Y119.073 E.02325
G1 X119.073 Y124.581 E.32202
G1 X118.51 Y124.581 E.02325
G1 X124.581 Y118.51 E.35489
G1 X124.581 Y117.948 E.02325
G1 X117.948 Y124.581 E.38777
G1 X117.385 Y124.581 E.02325
